X: 19224
T: Israel Got A Rabbit
R: polka
M: 2/4
K: Dmajor
|:d>d dc|BA AB/c/|df Bc|dA AB/c/|
dA dc|BA AB/c/|df Bc|1 dA AB/c/:|2 de fg/a/||
|:ge ef/g/|fd de/f/|eB Bc|de fg/a/|
ge ef/g/|fd de/f/|eB Bc|1 de fg/a/:|2 dA AB/c/||

